actions/22/map-mercator.svg

<svg xmlns="http://www.w3.org/2000/svg" viewBox="0 0 22 22">
  <defs id="defs3051">
<style type="text/css" id="current-color-scheme">.ColorScheme-Text {color:#fcfcfc;}</style>
  </defs>
 <path 
    style="fill:currentColor;fill-opacity:1;stroke:none" 
    d="m 3,7 v 9 c 0,0 0,3 3,3 3,0 2,0 2,0 h 1 4 1 c 0,0 -1,0 2,0 3,0 3,-3 3,-3 V 7 C 19,7 19,4 16,4 13,4 9,4 6,4 3,4 3,7 3,7 Z M 4,7 C 4,7 4,5 6,5 8,5 8,5 8,5 V 8 H 4 Z M 9,5 h 4 V 8 H 9 Z m 5,0 c 0,0 0,0 2,0 2,0 2,2 2,2 V 8 H 14 Z M 4,9 h 4 v 2 H 4 Z m 5,0 h 4 v 2 H 9 Z m 5,0 h 4 v 2 H 14 Z M 4,12 h 4 v 2 H 4 Z m 5,0 h 4 v 2 H 9 Z m 5,0 h 4 v 2 H 14 Z M 4,15 h 4 v 3 c 0,0 0,0 -2,0 -2,0 -2,-2 -2,-2 z m 5,0 h 4 v 3 H 9 Z m 5,0 h 4 v 1 c 0,0 0,2 -2,2 -2,0 -2,0 -2,0 z"
    class="ColorScheme-Text"
    />  
</svg>

<svg xmlns="http://www.w3.org/2000/svg" viewBox="0 0 22 22">
  <defs id="defs3051">
    <style type="text/css" id="current-color-scheme">
      .ColorScheme-Text {
        color:#eff0f1;
      }
      </style>
  </defs>
 <path 
    style="fill:currentColor;fill-opacity:1;stroke:none" 
    d="M 3 4 L 3 19 L 8 19 L 9 19 L 13 19 L 14 19 L 19 19 L 19 4 L 3 4 z M 4 5 L 8 5 L 8 8 L 4 8 L 4 5 z M 9 5 L 13 5 L 13 8 L 9 8 L 9 5 z M 14 5 L 18 5 L 18 8 L 14 8 L 14 5 z M 4 9 L 8 9 L 8 11 L 4 11 L 4 9 z M 9 9 L 13 9 L 13 11 L 9 11 L 9 9 z M 14 9 L 18 9 L 18 11 L 14 11 L 14 9 z M 4 12 L 8 12 L 8 14 L 4 14 L 4 12 z M 9 12 L 13 12 L 13 14 L 9 14 L 9 12 z M 14 12 L 18 12 L 18 14 L 14 14 L 14 12 z M 4 15 L 8 15 L 8 18 L 4 18 L 4 15 z M 9 15 L 13 15 L 13 18 L 9 18 L 9 15 z M 14 15 L 18 15 L 18 18 L 14 18 L 14 15 z "
    class="ColorScheme-Text"
    />  
</svg>
